X: 1
T: Baby's First Flute
M: 4/4
L: 1/8
R: reel
K: Dmaj
afge fd d2 | gbaf ge e2 | afge fd d2 |1 fage fd d2 :|2 fage fedc ||
B3c BAFA | dAFA DFAd | BF3 BAFA :|1 dcde dAFA :|2 dAFA defg |
